X:2252
T:Untitled 
C:Traditional
O:Isle of Man
S:Blind Cain, Douglas (25 Oct 1899) 
Z:Clague collection
B:Kiaull Vannin #252 
L:1/4
M:4/4 
Q:70 
K:D 
E|EFG A|B A/B/ c !fermata!e|dc dB|^G EE E|EF G A|B A/B/c e|d cd B|B3B| 
ec B A|dc B A|G E F^G|A^GEB|A^GE F|^GA B A|B C DC/D/|E>EE|| 

